src/icons/environments.svg

<svg viewBox="0 0 15 14" fill="none" xmlns="http://www.w3.org/2000/svg">
<path d="M12.6879 10.5302C12.3688 10.5326 12.058 10.6323 11.7971 10.816C11.5361 10.9996 11.3374 11.2584 11.2273 11.558H9.02754C8.93717 11.26 8.7747 10.989 8.55454 10.7688C8.33438 10.5486 8.06331 10.3862 7.76536 10.2958V9.06967C9.53242 8.99754 11.2634 8.43858 11.2634 7.35671V1.80311C11.2634 1.78508 11.2634 1.74902 11.2634 1.73099C11.2634 0.540934 9.22589 0 7.31459 0C5.40328 0 3.36576 0.540934 3.36576 1.73099C3.36576 1.74902 3.36576 1.78508 3.36576 1.80311V7.35671C3.36576 8.40251 4.98857 8.96148 6.6835 9.06967V10.2958C6.38555 10.3862 6.11448 10.5486 5.89432 10.7688C5.67416 10.989 5.51169 11.26 5.42132 11.558H3.0412C2.91417 11.2122 2.66948 10.9221 2.35002 10.7386C2.03056 10.5551 1.65671 10.4899 1.294 10.5544C0.931285 10.6189 0.60285 10.8091 0.366255 11.0914C0.12966 11.3738 0 11.7305 0 12.0989C0 12.4673 0.12966 12.824 0.366255 13.1063C0.60285 13.3887 0.931285 13.5789 1.294 13.6434C1.65671 13.7079 2.03056 13.6427 2.35002 13.4592C2.66948 13.2757 2.91417 12.9856 3.0412 12.6398H5.42132C5.53325 13.0317 5.76979 13.3764 6.09513 13.6218C6.42047 13.8672 6.8169 14 7.22443 14C7.63196 14 8.02839 13.8672 8.35373 13.6218C8.67907 13.3764 8.91561 13.0317 9.02754 12.6398H11.2273C11.3264 12.9095 11.4976 13.1468 11.7223 13.3258C11.947 13.5048 12.2166 13.6187 12.5016 13.655C12.7865 13.6913 13.076 13.6486 13.3384 13.5317C13.6008 13.4147 13.8261 13.228 13.9896 12.9918C14.1531 12.7556 14.2487 12.479 14.2658 12.1922C14.2829 11.9054 14.2209 11.6195 14.0866 11.3655C13.9523 11.1116 13.7508 10.8993 13.5042 10.752C13.2575 10.6047 12.9751 10.528 12.6879 10.5302ZM4.46566 2.95711C5.241 3.28167 6.30484 3.44395 7.33262 3.44395C8.36039 3.44395 9.42423 3.28167 10.1996 2.95711V4.45369C10.0734 4.65204 9.09967 5.12084 7.33262 5.12084C5.56556 5.12084 4.57385 4.65204 4.46566 4.45369V2.95711ZM4.46566 7.32064V5.71587C5.241 6.04043 6.30484 6.20271 7.33262 6.20271C8.36039 6.20271 9.42423 6.04043 10.1996 5.71587V7.32064C10.0734 7.51899 9.09967 7.9878 7.33262 7.9878C5.56556 7.9878 4.57385 7.53702 4.46566 7.33868V7.32064Z" fill="currentColor"/>
</svg>

<svg viewBox="0 0 15 14" fill="none" xmlns="http://www.w3.org/2000/svg"><path d="M12.688 10.53a1.568 1.568 0 00-1.46 1.028h-2.2a1.893 1.893 0 00-1.263-1.262V9.07c1.767-.072 3.498-.631 3.498-1.713V1.803v-.072C11.263.541 9.226 0 7.315 0c-1.912 0-3.95.54-3.95 1.731v5.626c0 1.046 1.624 1.604 3.319 1.713v1.226a1.893 1.893 0 00-1.263 1.262h-2.38a1.569 1.569 0 100 1.082h2.38a1.875 1.875 0 003.607 0h2.2a1.569 1.569 0 101.46-2.11zM4.466 2.957c.775.325 1.839.487 2.867.487 1.027 0 2.091-.162 2.867-.487v1.497c-.127.198-1.1.667-2.867.667s-2.76-.469-2.867-.667V2.957zm0 4.364V5.716c.775.324 1.839.487 2.867.487 1.027 0 2.091-.163 2.867-.487V7.32c-.127.198-1.1.667-2.867.667s-2.76-.451-2.867-.65v-.017z" fill="currentColor"/></svg>
